src/assets/animalImage/img/ostrich.svg

<?xml version="1.0" encoding="UTF-8" standalone="no"?><!DOCTYPE svg PUBLIC "-//W3C//DTD SVG 1.1//EN" "http://www.w3.org/Graphics/SVG/1.1/DTD/svg11.dtd"><svg width="100%" height="100%" viewBox="0 0 164 285" version="1.1" xmlns="http://www.w3.org/2000/svg" xmlns:xlink="http://www.w3.org/1999/xlink" xml:space="preserve" style="fill-rule:evenodd;clip-rule:evenodd;stroke-linejoin:round;stroke-miterlimit:1.41421;"><path d="M125.229,69.959c-3.769,0 -6.832,-3.062 -6.832,-6.822c0,-3.765 3.063,-6.824 6.832,-6.824c3.765,0 6.828,3.059 6.828,6.824c0,3.76 -3.063,6.822 -6.828,6.822Zm-8.816,54.375c-13.103,7.635 -23.453,13.651 -34.341,13.651l-0.559,0l-2.453,0c-11.063,0.212 -21.559,-5.882 -34.884,-13.651c-7.854,-4.578 -11.922,-10.193 -12.079,-16.718c-0.243,-10.088 9.047,-16.122 13.016,-18.694l0.609,-0.353c7.479,-4.131 9.782,-9.15 11.307,-12.469l0.268,-0.578c4.51,-11.5 14.779,-15.728 22.263,-15.85c6.681,0 18.791,3.347 23.716,15.844l0.268,0.584c1.528,3.319 3.844,8.338 11.31,12.469l0.612,0.353c3.956,2.572 13.25,8.606 13.003,18.694c-0.134,6.525 -4.2,12.14 -12.056,16.718Zm-78.306,-68.021c3.778,0 6.837,3.059 6.837,6.824c0,3.76 -3.059,6.822 -6.837,6.822c-3.766,0 -6.831,-3.062 -6.831,-6.822c0,-3.765 3.065,-6.824 6.831,-6.824Zm115.656,26.846c-0.781,-4.553 0.094,-9.771 4.116,-15.649c4.031,-6.329 5.178,-17.854 -8.066,-32.257c-8.653,-9.225 -68.562,-77.215 -143.466,4.616c0,0 -12.1,13.534 -2.887,24.481c3.756,4.034 9.809,17.862 0.578,32.553c-4.034,7.488 -8.641,13.25 13.825,33.416c0,0 63.388,62.222 131.95,-0.581c5.2,-5.2 14.334,-15.638 13.363,-26.128c-0.588,-6.282 -8.357,-14.238 -9.413,-20.451Z" style="fill:#eaf7fb;fill-rule:nonzero;"/><path d="M100.335,109.312c-1.619,1.229 -5.406,-0.831 -5.047,-3.693c0.356,-2.866 3.409,-3.4 4.909,-1.803c1.519,1.587 1.775,4.262 0.138,5.496Zm-37.813,0c-1.631,-1.234 -1.371,-3.909 0.132,-5.503c1.509,-1.59 4.559,-1.056 4.918,1.797c0.372,2.863 -3.421,4.935 -5.05,3.706Zm47.529,-12.031c-11.141,-6.15 -14.216,-14.203 -15.944,-17.865c-3.453,-9.21 -12.947,-9.81 -14.378,-9.794c-1.438,0.028 -9.794,0.584 -13.247,9.794c-1.741,3.662 -4.806,11.715 -15.947,17.865c-7.103,4.616 -14.213,10.953 -1.344,18.441c12.866,7.487 21.706,12.481 29.772,12.294l2.666,0c8.065,0.187 16.903,-4.807 29.772,-12.294c12.868,-7.488 5.759,-13.831 -1.35,-18.441Z" style="fill:#ef3b23;fill-rule:nonzero;"/><path d="M125.332,158.491c-13.069,6.168 -26.628,9.284 -40.563,9.284c-16.478,0 -31.084,-4.387 -42.884,-9.813c-5.725,-2.64 -7.153,-1.087 -4.041,4.394c4.169,7.338 7.366,15.2 9.475,26.122c3.378,17.488 3.935,43.066 1.75,84.366c-0.328,6.29 4.466,11.453 10.769,11.528l24.197,0.303l0.344,0l24.203,-0.303c6.3,-0.081 11.09,-5.238 10.753,-11.528c-2.266,-42.422 -1.778,-67.556 1.553,-85.244c1.931,-10.184 4.831,-17.759 8.584,-24.747c2.979,-5.547 1.563,-7.053 -4.14,-4.362Z" style="fill:#757c7e;fill-rule:nonzero;"/><path d="M117.597,53.306c5.197,0 9.404,4.21 9.404,9.407c0,5.193 -4.207,9.403 -9.404,9.403c-5.193,0 -9.403,-4.21 -9.403,-9.403c-0.003,-5.194 4.21,-9.407 9.403,-9.407Z" style="fill:#030404;fill-rule:nonzero;"/><path d="M117.597,53.306l0,1.563c4.332,0.009 7.835,3.512 7.841,7.844c-0.006,4.328 -3.509,7.831 -7.841,7.84c-4.328,-0.009 -7.831,-3.512 -7.84,-7.84l0,-0.022l0,-0.019l-1.335,0.034l1.335,0l0,-0.034l-1.335,0.034l1.335,0c0.009,-4.325 3.512,-7.828 7.84,-7.837l0,-1.563l0,-1.562c-6.056,0.003 -10.962,4.909 -10.965,10.962l0,0.044l1.562,-0.037l-1.562,0c0,6.056 4.909,10.965 10.965,10.965c6.06,0 10.966,-4.909 10.966,-10.965c0,-6.06 -4.906,-10.966 -10.966,-10.969l0,1.562Z" style="fill:#030404;fill-rule:nonzero;"/><path d="M44.944,53.306c5.197,0 9.407,4.21 9.407,9.407c0,5.193 -4.21,9.403 -9.407,9.403c-5.19,0 -9.4,-4.21 -9.4,-9.403c-0.006,-5.194 4.21,-9.407 9.4,-9.407Z" style="fill:#030404;fill-rule:nonzero;"/><path d="M44.944,53.306l0,1.563c4.335,0.009 7.835,3.512 7.844,7.844c-0.009,4.328 -3.509,7.831 -7.844,7.84c-4.328,-0.009 -7.831,-3.512 -7.837,-7.84l0,-0.016l0,-0.013l-1.056,0.019l1.056,0l0,-0.019l-1.056,0.019l1.056,0c0.006,-4.322 3.512,-7.825 7.837,-7.834l0,-1.563l0,-1.562c-6.053,0.003 -10.962,4.906 -10.962,10.959l0,0.035l1.562,-0.025l-1.562,0c0,6.056 4.906,10.965 10.962,10.965c6.06,0 10.966,-4.909 10.969,-10.965c-0.003,-6.06 -4.909,-10.966 -10.969,-10.969l0,1.562Z" style="fill:#030404;fill-rule:nonzero;"/></svg>

<?xml version="1.0" encoding="UTF-8" standalone="no"?>
<!DOCTYPE svg PUBLIC "-//W3C//DTD SVG 1.1//EN" "http://www.w3.org/Graphics/SVG/1.1/DTD/svg11.dtd">
<svg width="100%" height="100%" viewBox="0 0 285 285" version="1.1" xmlns="http://www.w3.org/2000/svg" xmlns:xlink="http://www.w3.org/1999/xlink" xml:space="preserve" xmlns:serif="http://www.serif.com/" style="fill-rule:evenodd;clip-rule:evenodd;stroke-linejoin:round;stroke-miterlimit:1.41421;">
    <g transform="matrix(1,0,0,1,60.5,0)">
        <path d="M125.229,69.959C121.46,69.959 118.397,66.897 118.397,63.137C118.397,59.372 121.46,56.313 125.229,56.313C128.994,56.313 132.057,59.372 132.057,63.137C132.057,66.897 128.994,69.959 125.229,69.959ZM116.413,124.334C103.31,131.969 92.96,137.985 82.072,137.985L81.513,137.985L79.06,137.985C67.997,138.197 57.501,132.103 44.176,124.334C36.322,119.756 32.254,114.141 32.097,107.616C31.854,97.528 41.144,91.494 45.113,88.922L45.722,88.569C53.201,84.438 55.504,79.419 57.029,76.1L57.297,75.522C61.807,64.022 72.076,59.794 79.56,59.672C86.241,59.672 98.351,63.019 103.276,75.516L103.544,76.1C105.072,79.419 107.388,84.438 114.854,88.569L115.466,88.922C119.422,91.494 128.716,97.528 128.469,107.616C128.335,114.141 124.269,119.756 116.413,124.334ZM38.107,56.313C41.885,56.313 44.944,59.372 44.944,63.137C44.944,66.897 41.885,69.959 38.107,69.959C34.341,69.959 31.276,66.897 31.276,63.137C31.276,59.372 34.341,56.313 38.107,56.313ZM153.763,83.159C152.982,78.606 153.857,73.388 157.879,67.51C161.91,61.181 163.057,49.656 149.813,35.253C141.16,26.028 81.251,-41.962 6.347,39.869C6.347,39.869 -5.753,53.403 3.46,64.35C7.216,68.384 13.269,82.212 4.038,96.903C0.004,104.391 -4.603,110.153 17.863,130.319C17.863,130.319 81.251,192.541 149.813,129.738C155.013,124.538 164.147,114.1 163.176,103.61C162.588,97.328 154.819,89.372 153.763,83.159Z" style="fill:rgb(234,247,251);fill-rule:nonzero;"/>
    </g>
    <g transform="matrix(1,0,0,1,60.5,0)">
        <path d="M100.335,109.312C98.716,110.541 94.929,108.481 95.288,105.619C95.644,102.753 98.697,102.219 100.197,103.816C101.716,105.403 101.972,108.078 100.335,109.312ZM62.522,109.312C60.891,108.078 61.151,105.403 62.654,103.809C64.163,102.219 67.213,102.753 67.572,105.606C67.944,108.469 64.151,110.541 62.522,109.312ZM110.051,97.281C98.91,91.131 95.835,83.078 94.107,79.416C90.654,70.206 81.16,69.606 79.729,69.622C78.291,69.65 69.935,70.206 66.482,79.416C64.741,83.078 61.676,91.131 50.535,97.281C43.432,101.897 36.322,108.234 49.191,115.722C62.057,123.209 70.897,128.203 78.963,128.016L81.629,128.016C89.694,128.203 98.532,123.209 111.401,115.722C124.269,108.234 117.16,101.891 110.051,97.281Z" style="fill:rgb(239,59,35);fill-rule:nonzero;"/>
    </g>
    <g transform="matrix(1,0,0,1,60.5,0)">
        <path d="M125.332,158.491C112.263,164.659 98.704,167.775 84.769,167.775C68.291,167.775 53.685,163.388 41.885,157.962C36.16,155.322 34.732,156.875 37.844,162.356C42.013,169.694 45.21,177.556 47.319,188.478C50.697,205.966 51.254,231.544 49.069,272.844C48.741,279.134 53.535,284.297 59.838,284.372L84.035,284.675L84.379,284.675L108.582,284.372C114.882,284.291 119.672,279.134 119.335,272.844C117.069,230.422 117.557,205.288 120.888,187.6C122.819,177.416 125.719,169.841 129.472,162.853C132.451,157.306 131.035,155.8 125.332,158.491Z" style="fill:rgb(117,124,126);fill-rule:nonzero;"/>
    </g>
    <g transform="matrix(1,0,0,1,60.5,0)">
        <path d="M117.597,53.306C122.794,53.306 127.001,57.516 127.001,62.713C127.001,67.906 122.794,72.116 117.597,72.116C112.404,72.116 108.194,67.906 108.194,62.713C108.191,57.519 112.404,53.306 117.597,53.306Z" style="fill:rgb(3,4,4);fill-rule:nonzero;"/>
    </g>
    <g transform="matrix(1,0,0,1,60.5,0)">
        <path d="M117.597,53.306L117.597,54.869C121.929,54.878 125.432,58.381 125.438,62.713C125.432,67.041 121.929,70.544 117.597,70.553C113.269,70.544 109.766,67.041 109.757,62.713L109.757,62.691L109.757,62.672L108.422,62.706L109.757,62.706L109.757,62.672L108.422,62.706L109.757,62.706C109.766,58.381 113.269,54.878 117.597,54.869L117.597,53.306L117.597,51.744C111.541,51.747 106.635,56.653 106.632,62.706L106.632,62.75L108.194,62.713L106.632,62.713C106.632,68.769 111.541,73.678 117.597,73.678C123.657,73.678 128.563,68.769 128.563,62.713C128.563,56.653 123.657,51.747 117.597,51.744L117.597,53.306Z" style="fill:rgb(3,4,4);fill-rule:nonzero;"/>
    </g>
    <g transform="matrix(1,0,0,1,60.5,0)">
        <path d="M44.944,53.306C50.141,53.306 54.351,57.516 54.351,62.713C54.351,67.906 50.141,72.116 44.944,72.116C39.754,72.116 35.544,67.906 35.544,62.713C35.538,57.519 39.754,53.306 44.944,53.306Z" style="fill:rgb(3,4,4);fill-rule:nonzero;"/>
    </g>
    <g transform="matrix(1,0,0,1,60.5,0)">
        <path d="M44.944,53.306L44.944,54.869C49.279,54.878 52.779,58.381 52.788,62.713C52.779,67.041 49.279,70.544 44.944,70.553C40.616,70.544 37.113,67.041 37.107,62.713L37.107,62.697L37.107,62.684L36.051,62.703L37.107,62.703L37.107,62.684L36.051,62.703L37.107,62.703C37.113,58.381 40.619,54.878 44.944,54.869L44.944,53.306L44.944,51.744C38.891,51.747 33.982,56.65 33.982,62.703L33.982,62.738L35.544,62.713L33.982,62.713C33.982,68.769 38.888,73.678 44.944,73.678C51.004,73.678 55.91,68.769 55.913,62.713C55.91,56.653 51.004,51.747 44.944,51.744L44.944,53.306Z" style="fill:rgb(3,4,4);fill-rule:nonzero;"/>
    </g>
</svg>
